assets/images/zixun.svg

<svg xmlns="http://www.w3.org/2000/svg" preserveAspectRatio="xMidYMid" width="198" height="46" viewBox="0 0 198 46"><defs><style>.cls-1{fill:#171717;fill-rule:evenodd}</style></defs><path d="M189.75 42.255c-.384 1.088-.832 1.632-1.344 1.632-1.376 0-2.688-1.104-3.936-3.312-2.208-4.512-3.312-12.127-3.312-22.848V5.343h-10.656v14.976h7.344v1.584h-7.344v22.608h-1.584V21.903h-7.92v-1.584h7.92V5.343h-7.104V3.759h20.976v13.968c0 10.368.992 17.681 2.976 21.936.832 1.664 1.6 2.496 2.304 2.496.288 0 .528-.496.72-1.488.256-1.44.432-4.032.528-7.776l1.392.72c-.192 4.608-.512 7.488-.96 8.64zM149.958 2.607l1.152-1.104c3.232 2.496 6.048 5.121 8.448 7.872l-1.152 1.152c-2.112-2.463-4.928-5.103-8.448-7.92zm5.712 36.432c2.048-1.663 4.096-3.552 6.144-5.664l.432 1.776c-2.624 2.721-5.392 5.088-8.304 7.104l-.672-1.488c.512-.512.768-.991.768-1.44V17.775h-7.248v-1.632h8.88v22.896zm-13.296-20.256l-.576 1.44c-7.552-1.536-12.704-4.431-15.456-8.688-.736 1.377-1.616 2.577-2.64 3.6-2.4 2.145-6.208 3.825-11.424 5.04l-.672-1.488c5.024-1.119 8.656-2.655 10.896-4.608 2.08-1.951 3.408-4.591 3.984-7.92h-7.824c-1.344 1.889-3.008 3.585-4.992 5.088l-1.008-1.344c3.456-2.496 5.776-5.535 6.96-9.12l1.584.192a22.896 22.896 0 0 1-1.584 3.696h20.208v1.056a48.777 48.777 0 0 1-2.544 7.008l-1.584-.48a26.823 26.823 0 0 0 2.4-6.096H128.07c-.256 1.505-.608 2.801-1.056 3.888 2.496 4.289 7.616 7.2 15.36 8.736zm-40.992-.336c3.616-2.208 6.64-4.608 9.072-7.2l.96 1.104c-2.464 2.688-5.44 5.153-8.928 7.392l-1.104-1.296zm.72-14.736l.816-1.248c2.944.929 5.6 2.033 7.968 3.312l-.864 1.344c-2.656-1.471-5.296-2.607-7.92-3.408zM91.014 44.703H89.43v-26.4h-9.408v7.056c-.224 7.937-2 14.289-5.328 19.056l-1.2-1.248c3.008-4.255 4.64-10.191 4.896-17.808V5.151c5.696-.159 10.864-1.359 15.504-3.6l.816 1.488c-4.32 2.016-9.216 3.168-14.688 3.456v10.224H97.11v1.584h-6.096v26.4zm-25.44-19.584h9.072v1.536h-9.072v14.4c0 2.4-1.088 3.6-3.264 3.6h-2.688l-.336-1.584a50.89 50.89 0 0 0 2.496.096c1.44 0 2.16-.848 2.16-2.544V26.655h-9.744v-1.536h9.744v-7.056H53.526v-1.584h6.192a27.051 27.051 0 0 0-3.168-6.48l1.536-.528c1.152 1.857 2.224 4.193 3.216 7.008h6.24c1.28-2.175 2.416-4.591 3.408-7.248l1.536.528c-.992 2.465-2.128 4.704-3.408 6.72h6.432v1.584h-9.936v7.056zM53.958 5.583h10.368C63.398 3.696 62.342 2 61.158.495L62.79.207c1.12 1.473 2.176 3.264 3.168 5.376h9.216v1.632H53.958V5.583zm6.048 24.816c-1.376 4.833-3.344 9.057-5.904 12.672l-1.392-.912c2.56-3.487 4.464-7.519 5.712-12.096l1.584.336zM27.03 38.127c.768-.127 1.856-.288 3.264-.48v1.44l-3.264.432v4.944h-1.632v-4.752c-4.8.544-10.72.992-17.76 1.344l-.24-1.536c2.176-.063 3.808-.127 4.896-.192V21.471H7.11v-1.44h41.952v1.44H27.03v16.656zm-1.632-16.656h-11.52v4.848h11.52v-4.848zm0 6.288h-11.52v4.752h11.52v-4.752zm0 6.144h-11.52v5.328c4.48-.255 8.32-.559 11.52-.912v-4.416zM13.878 3.039h28.608v12.624H13.878V3.039zm1.584 11.184h25.392V9.951H15.462v4.272zm0-5.616h25.392V4.431H15.462v4.176zm16.464 18.816H30.39v-1.536h15.744v1.44c-1.088 4.065-3.008 7.536-5.76 10.416 2.464 2.016 5.328 3.728 8.592 5.136l-.864 1.344c-3.488-1.664-6.4-3.488-8.736-5.472-2.336 2.176-5.184 4.016-8.544 5.52l-.912-1.296c3.264-1.408 6.016-3.168 8.256-5.28-3.104-3.007-5.184-6.432-6.24-10.272zm12.576 0h-11.04c.992 3.521 2.896 6.609 5.712 9.264 2.528-2.688 4.304-5.775 5.328-9.264zm29.712 11.184l-1.392.528c-1.216-3.264-2.592-6.288-4.128-9.072l1.44-.384c1.728 3.168 3.088 6.144 4.08 8.928zm42.816-.384c2.24-2.304 3.584-6.175 4.032-11.616l1.68.192c-.672 6.017-2.144 10.161-4.416 12.432-2.56 2.656-7.936 4.32-16.128 4.992l-.672-1.44c7.776-.48 12.944-2 15.504-4.56zm-10.464-1.536V22.335h29.904v14.208h-1.632V23.919h-26.592v12.768h-1.68zm34.656 6.384l-.864 1.392a89.52 89.52 0 0 0-17.088-6.528l.864-1.248c6.112 1.697 11.808 3.824 17.088 6.384z" class="cls-1"/></svg>

<svg xmlns="http://www.w3.org/2000/svg" xmlns:xlink="http://www.w3.org/1999/xlink" preserveAspectRatio="xMidYMid" width="198" height="46" viewBox="0 0 198 46">
  <defs>
    <style>
      .cls-1 {
        fill: #171717;
        fill-rule: evenodd;
      }
    </style>
  </defs>
  <path d="M189.750,42.255 C189.366,43.343 188.918,43.887 188.406,43.887 C187.030,43.887 185.718,42.783 184.470,40.575 C182.262,36.063 181.158,28.448 181.158,17.727 L181.158,5.343 L170.502,5.343 L170.502,20.319 L177.846,20.319 L177.846,21.903 L170.502,21.903 L170.502,44.511 L168.918,44.511 L168.918,21.903 L160.998,21.903 L160.998,20.319 L168.918,20.319 L168.918,5.343 L161.814,5.343 L161.814,3.759 L182.790,3.759 L182.790,17.727 C182.790,28.095 183.782,35.408 185.766,39.663 C186.598,41.327 187.366,42.159 188.070,42.159 C188.358,42.159 188.598,41.663 188.790,40.671 C189.046,39.231 189.222,36.639 189.318,32.895 L190.710,33.615 C190.518,38.223 190.198,41.103 189.750,42.255 ZM149.958,2.607 L151.110,1.503 C154.342,3.999 157.158,6.624 159.558,9.375 L158.406,10.527 C156.294,8.064 153.478,5.424 149.958,2.607 ZM155.670,39.039 C157.718,37.376 159.766,35.487 161.814,33.375 L162.246,35.151 C159.622,37.872 156.854,40.239 153.942,42.255 L153.270,40.767 C153.782,40.255 154.038,39.776 154.038,39.327 L154.038,17.775 L146.790,17.775 L146.790,16.143 L155.670,16.143 L155.670,39.039 ZM142.374,18.783 L141.798,20.223 C134.246,18.687 129.094,15.792 126.342,11.535 C125.606,12.912 124.726,14.112 123.702,15.135 C121.302,17.280 117.494,18.960 112.278,20.175 L111.606,18.687 C116.630,17.568 120.262,16.032 122.502,14.079 C124.582,12.128 125.910,9.488 126.486,6.159 L118.662,6.159 C117.318,8.048 115.654,9.744 113.670,11.247 L112.662,9.903 C116.118,7.407 118.438,4.368 119.622,0.783 L121.206,0.975 C120.758,2.319 120.230,3.552 119.622,4.671 L139.830,4.671 L139.830,5.727 C139.126,8.223 138.278,10.560 137.286,12.735 L135.702,12.255 C136.758,10.304 137.558,8.271 138.102,6.159 L128.070,6.159 C127.814,7.664 127.462,8.960 127.014,10.047 C129.510,14.336 134.630,17.247 142.374,18.783 ZM101.382,18.447 C104.998,16.239 108.022,13.839 110.454,11.247 L111.414,12.351 C108.950,15.039 105.974,17.504 102.486,19.743 L101.382,18.447 ZM102.102,3.711 L102.918,2.463 C105.862,3.392 108.518,4.496 110.886,5.775 L110.022,7.119 C107.366,5.648 104.726,4.512 102.102,3.711 ZM91.014,44.703 L89.430,44.703 L89.430,18.303 L80.022,18.303 L80.022,25.359 C79.798,33.296 78.022,39.648 74.694,44.415 L73.494,43.167 C76.502,38.912 78.134,32.976 78.390,25.359 L78.390,5.151 C84.086,4.992 89.254,3.792 93.894,1.551 L94.710,3.039 C90.390,5.055 85.494,6.207 80.022,6.495 L80.022,16.719 L97.110,16.719 L97.110,18.303 L91.014,18.303 L91.014,44.703 ZM65.574,25.119 L74.646,25.119 L74.646,26.655 L65.574,26.655 L65.574,41.055 C65.574,43.455 64.486,44.655 62.310,44.655 L59.622,44.655 L59.286,43.071 C60.438,43.135 61.270,43.167 61.782,43.167 C63.222,43.167 63.942,42.319 63.942,40.623 L63.942,26.655 L54.198,26.655 L54.198,25.119 L63.942,25.119 L63.942,18.063 L53.526,18.063 L53.526,16.479 L59.718,16.479 C58.950,14.175 57.894,12.015 56.550,9.999 L58.086,9.471 C59.238,11.328 60.310,13.664 61.302,16.479 L67.542,16.479 C68.822,14.304 69.958,11.888 70.950,9.231 L72.486,9.759 C71.494,12.224 70.358,14.463 69.078,16.479 L75.510,16.479 L75.510,18.063 L65.574,18.063 L65.574,25.119 ZM53.958,5.583 L64.326,5.583 C63.398,3.696 62.342,2.000 61.158,0.495 L62.790,0.207 C63.910,1.680 64.966,3.471 65.958,5.583 L75.174,5.583 L75.174,7.215 L53.958,7.215 L53.958,5.583 ZM60.006,30.399 C58.630,35.232 56.662,39.456 54.102,43.071 L52.710,42.159 C55.270,38.672 57.174,34.640 58.422,30.063 L60.006,30.399 ZM27.030,38.127 C27.798,38.000 28.886,37.839 30.294,37.647 L30.294,39.087 L27.030,39.519 L27.030,44.463 L25.398,44.463 L25.398,39.711 C20.598,40.255 14.678,40.703 7.638,41.055 L7.398,39.519 C9.574,39.456 11.206,39.392 12.294,39.327 L12.294,21.471 L7.110,21.471 L7.110,20.031 L49.062,20.031 L49.062,21.471 L27.030,21.471 L27.030,38.127 ZM25.398,21.471 L13.878,21.471 L13.878,26.319 L25.398,26.319 L25.398,21.471 ZM25.398,27.759 L13.878,27.759 L13.878,32.511 L25.398,32.511 L25.398,27.759 ZM25.398,33.903 L13.878,33.903 L13.878,39.231 C18.358,38.976 22.198,38.672 25.398,38.319 L25.398,33.903 ZM13.878,3.039 L42.486,3.039 L42.486,15.663 L13.878,15.663 L13.878,3.039 ZM15.462,14.223 L40.854,14.223 L40.854,9.951 L15.462,9.951 L15.462,14.223 ZM15.462,8.607 L40.854,8.607 L40.854,4.431 L15.462,4.431 L15.462,8.607 ZM31.926,27.423 L30.390,27.423 L30.390,25.887 L46.134,25.887 L46.134,27.327 C45.046,31.392 43.126,34.863 40.374,37.743 C42.838,39.759 45.702,41.471 48.966,42.879 L48.102,44.223 C44.614,42.559 41.702,40.735 39.366,38.751 C37.030,40.927 34.182,42.767 30.822,44.271 L29.910,42.975 C33.174,41.567 35.926,39.807 38.166,37.695 C35.062,34.688 32.982,31.263 31.926,27.423 ZM44.502,27.423 L33.462,27.423 C34.454,30.944 36.358,34.032 39.174,36.687 C41.702,33.999 43.478,30.912 44.502,27.423 ZM74.214,38.607 L72.822,39.135 C71.606,35.871 70.230,32.847 68.694,30.063 L70.134,29.679 C71.862,32.847 73.222,35.823 74.214,38.607 ZM117.030,38.223 C119.270,35.919 120.614,32.048 121.062,26.607 L122.742,26.799 C122.070,32.816 120.598,36.960 118.326,39.231 C115.766,41.887 110.390,43.551 102.198,44.223 L101.526,42.783 C109.302,42.303 114.470,40.783 117.030,38.223 ZM106.566,36.687 L106.566,22.335 L136.470,22.335 L136.470,36.543 L134.838,36.543 L134.838,23.919 L108.246,23.919 L108.246,36.687 L106.566,36.687 ZM141.222,43.071 L140.358,44.463 C134.822,41.679 129.126,39.504 123.270,37.935 L124.134,36.687 C130.246,38.384 135.942,40.511 141.222,43.071 Z" class="cls-1"/>
</svg>
